X: 91
T: Pollonesse #91
M: 3/4
L: 1/16
R: Pollonesse
K: C
Q: 110
e3f [eg]2[eg]2 [eg]4|agfe fega [gc]4|c2de fgaf efge|d2ag fedc cBAG|
Gcec Gcec Gcec|e2fg d2ef fedc|Gcec Gcec Gcec|e2fg d2ef fedc|
c2a2 g2f2 e2d2|c2B2B4c4::[K:F]c4 c2B2 B2AB|c2aa g2c2 dcBA|B2gg g2B2 A2c2|
cBdc BAGF FEDC|CFAF CFAF CFAF|A2Bc G2AB BAGF| CFAF CFAF CFAF|
A2Bc G2AB BAGF|F2f2 e2d2 c2B2|AcEG G4 F4:|
N: 1:a reprisen står i original noterad i F
N: Takt 1-3 i 1:a rep. har en bis. notation, som jag hoppat över

